app/static/images/icons/medal.svg

<svg fill="none" height="117" viewBox="0 0 117 117" width="117" xmlns="http://www.w3.org/2000/svg" xmlns:xlink="http://www.w3.org/1999/xlink"><clipPath id="a"><path d="m0 0h117v117h-117z"/></clipPath><g clip-path="url(#a)"><path d="m35.9583 104.097 16.3039-39.3599-13.0928-5.4234-18.7844 45.3483c-.7914 1.911.999 3.879 2.9759 3.273l10.6514-3.269c.316-.097.6202-.126.9332-.096z" fill="#ffe07d"/><path d="m51.5648 64.4475-16.6195 40.1225c.8044.071 1.5466.538 1.944 1.288l5.2202 9.843c.9689 1.827 3.6272 1.7 4.4188-.21l18.7844-45.3487z" fill="#ffd064"/><path d="m65.7991 64.2959-14.1136 5.8463 18.7845 45.3488c.7913 1.91 3.4497 2.036 4.4188.209l5.2202-9.843c.1607-.303.378-.56.6328-.764l1.2781-1.615z" fill="#ffe07d"/><path d="m96.6151 104.661-18.7845-45.3483-13.6997 5.6748 16.6135 40.1075c.6159-.492 1.4506-.673 2.2433-.43l10.6514 3.269c1.9771.607 3.7675-1.362 2.976-3.273z" fill="#ffd064"/><path d="m63.2166 1.64394c1.9646 1.55871 4.5724 2.04613 6.9675 1.30254 3.3678-1.04592 7.0122.36608 8.7965 3.40785 1.2689 2.16313 3.5244 3.55982 6.0264 3.73147 3.5182.2413 6.4064 2.8745 6.9715 6.3554.4018 2.4756 2.0007 4.5925 4.2717 5.6565 3.1935 1.4961 4.9358 4.9947 4.2048 8.4446-.5195 2.4533.206 5.0051 1.94 6.8175 2.437 2.5486 2.798 6.4402.87 9.3934-1.371 2.1-1.615 4.7417-.654 7.0579 1.352 3.257.283 7.0161-2.581 9.0734-2.0372 1.463-3.2197 3.838-3.1599 6.345.0844 3.5255-2.2709 6.6443-5.685 7.5282-2.4277.6284-4.3884 2.4159-5.2382 4.7753-1.1949 3.3178-4.518 5.3754-8.0207 4.9661-2.4908-.2909-4.9647.6673-6.6096 2.5605-2.3128 2.6622-6.1546 3.3802-9.2729 1.7335-2.2175-1.1711-4.8706-1.1711-7.0881 0-3.1184 1.647-6.9602.9287-9.273-1.7335-1.6448-1.8932-4.1185-2.8514-6.6095-2.5605-3.5027.4093-6.8256-1.6483-8.0207-4.9661-.8499-2.3594-2.8103-4.1469-5.2383-4.7753-3.414-.8837-5.7693-4.0027-5.685-7.5282.0599-2.507-1.1227-4.882-3.1595-6.345-2.8642-2.0573-3.9336-5.8164-2.5815-9.0734.9616-2.3162.7169-4.9579-.654-7.0579-1.9275-2.9532-1.5669-6.8448.8704-9.3934 1.7333-1.8124 2.4593-4.3642 1.9399-6.8175-.7306-3.4499 1.0114-6.9487 4.2049-8.4446 2.271-1.064 3.8697-3.1809 4.2716-5.6565.5649-3.4809 3.4534-6.1139 6.9716-6.3554 2.502-.17165 4.7575-1.56834 6.0264-3.73147 1.7843-3.04177 5.4289-4.45354 8.7965-3.40785 2.3951.74382 5.0029.25617 6.9674-1.30254 2.7628-2.19192 6.6713-2.19192 9.4338 0z" fill="#e8ae4d"/><path d="m79.2045 45.8355c0-15.4716-9.9811-28.6113-23.8552-33.3335-17.0133 1.5877-30.3298 15.9053-30.3298 33.3335s13.3165 31.7459 30.3298 33.3336c13.8743-4.7223 23.8552-17.8617 23.8552-33.3336z" fill="#ffe07d"/><path d="m58.4994 12.3557c-2.563 0-5.0584.2891-7.4564.8346 14.901 3.3893 26.0233 16.7179 26.0233 32.6452s-11.1223 29.256-26.0233 32.6453c2.398.5455 4.8934.8346 7.4564.8346 18.4904 0 33.4799-14.9895 33.4799-33.4799 0-18.4903-14.9895-33.4798-33.4799-33.4798z" fill="#ffd064"/><path d="m59.421 58.6856 11.5554 7.7782c.4543.3058.9563.3508 1.3957.2155.4084-.555.801-1.1225 1.1771-1.7015-.0089-.1104-.0292-.2233-.0619-.338l-3.8267-13.3933c-.1847-.6465.0407-1.3402.5701-1.7545l8.8248-6.9083c-.1464-1.5996-.4001-3.1683-.7534-4.6989l-11.9824-.4299c-.6719-.024-1.2621-.4529-1.4925-1.0843l-4.7768-13.085c-.5284-1.4472-2.5752-1.4472-3.1035 0l-4.7767 13.0846c-.2306.6313-.8206 1.0603-1.4924 1.0843l-13.9203.4993c-1.5397.0553-2.172 2.0018-.9591 2.9515l10.9683 8.5862c.5293.4143.7548 1.1081.5702 1.7546l-3.8267 13.3933c-.4233 1.4814 1.2326 2.6843 2.5107 1.8242l11.5553-7.7782c.5578-.375 1.2872-.375 1.8448.0002z" fill="#e8ae4d"/><g fill="#e5a32e"><path d="m70.9777 66.4641c1.2781.8604 2.9339-.3428 2.5107-1.8242l-.6938-2.4285c-.7447 1.3252-1.5779 2.5939-2.4899 3.7998z"/><path d="m80.2401 37.9542-4.1444-.1488c.5059 2.0548.8213 4.1841.9282 6.3688l4.1753-3.2685c1.2129-.9495.5804-2.8962-.9591-2.9515z"/></g></g></svg>

<svg width="117" height="117" viewBox="0 0 117 117" fill="none" xmlns="http://www.w3.org/2000/svg">
<g clip-path="url(#clip0)">
<path d="M35.9583 104.097L52.2622 64.7371L39.1694 59.3137L20.385 104.662C19.5936 106.573 21.384 108.541 23.3609 107.935L34.0123 104.666C34.3283 104.569 34.6325 104.54 34.9455 104.57L35.9583 104.097Z" fill="#FFE07D"/>
<path d="M51.5648 64.4475L34.9453 104.57C35.7497 104.641 36.4919 105.108 36.8893 105.858L42.1095 115.701C43.0784 117.528 45.7367 117.401 46.5283 115.491L65.3127 70.1423L51.5648 64.4475Z" fill="#FFD064"/>
<path d="M65.7991 64.2959L51.6855 70.1422L70.47 115.491C71.2613 117.401 73.9197 117.527 74.8888 115.7L80.109 105.857C80.2697 105.554 80.487 105.297 80.7418 105.093L82.0199 103.478L65.7991 64.2959Z" fill="#FFE07D"/>
<path d="M96.6151 104.661L77.8306 59.3127L64.1309 64.9875L80.7444 105.095C81.3603 104.603 82.195 104.422 82.9877 104.665L93.6391 107.934C95.6162 108.541 97.4066 106.572 96.6151 104.661Z" fill="#FFD064"/>
<path d="M63.2166 1.64394C65.1812 3.20265 67.789 3.69007 70.1841 2.94648C73.5519 1.90056 77.1963 3.31256 78.9806 6.35433C80.2495 8.51746 82.505 9.91415 85.007 10.0858C88.5252 10.3271 91.4134 12.9603 91.9785 16.4412C92.3803 18.9168 93.9792 21.0337 96.2502 22.0977C99.4437 23.5938 101.186 27.0924 100.455 30.5423C99.9355 32.9956 100.661 35.5474 102.395 37.3598C104.832 39.9084 105.193 43.8 103.265 46.7532C101.894 48.8532 101.65 51.4949 102.611 53.8111C103.963 57.0681 102.894 60.8272 100.03 62.8845C97.9928 64.3475 96.8103 66.7225 96.8701 69.2295C96.9545 72.755 94.5992 75.8738 91.1851 76.7577C88.7574 77.3861 86.7967 79.1736 85.9469 81.533C84.752 84.8508 81.4289 86.9084 77.9262 86.4991C75.4354 86.2082 72.9615 87.1664 71.3166 89.0596C69.0038 91.7218 65.162 92.4398 62.0437 90.7931C59.8262 89.622 57.1731 89.622 54.9556 90.7931C51.8372 92.4401 47.9954 91.7218 45.6826 89.0596C44.0378 87.1664 41.5641 86.2082 39.0731 86.4991C35.5704 86.9084 32.2475 84.8508 31.0524 81.533C30.2025 79.1736 28.2421 77.3861 25.8141 76.7577C22.4001 75.874 20.0448 72.755 20.1291 69.2295C20.189 66.7225 19.0064 64.3475 16.9696 62.8845C14.1054 60.8272 13.036 57.0681 14.3881 53.8111C15.3497 51.4949 15.105 48.8532 13.7341 46.7532C11.8066 43.8 12.1672 39.9084 14.6045 37.3598C16.3378 35.5474 17.0638 32.9956 16.5444 30.5423C15.8138 27.0924 17.5558 23.5936 20.7493 22.0977C23.0203 21.0337 24.619 18.9168 25.0209 16.4412C25.5858 12.9603 28.4743 10.3273 31.9925 10.0858C34.4945 9.91415 36.75 8.51746 38.0189 6.35433C39.8032 3.31256 43.4478 1.90079 46.8154 2.94648C49.2105 3.6903 51.8183 3.20265 53.7828 1.64394C56.5456 -0.54798 60.4541 -0.54798 63.2166 1.64394Z" fill="#E8AE4D"/>
<path d="M79.2045 45.8355C79.2045 30.3639 69.2234 17.2242 55.3493 12.502C38.336 14.0897 25.0195 28.4073 25.0195 45.8355C25.0195 63.2637 38.336 77.5814 55.3493 79.1691C69.2236 74.4468 79.2045 61.3074 79.2045 45.8355Z" fill="#FFE07D"/>
<path d="M58.4994 12.3557C55.9364 12.3557 53.441 12.6448 51.043 13.1903C65.944 16.5796 77.0663 29.9082 77.0663 45.8355C77.0663 61.7628 65.944 75.0915 51.043 78.4808C53.441 79.0263 55.9364 79.3154 58.4994 79.3154C76.9898 79.3154 91.9793 64.3259 91.9793 45.8355C91.9793 27.3452 76.9898 12.3557 58.4994 12.3557Z" fill="#FFD064"/>
<path d="M59.421 58.6856L70.9764 66.4638C71.4307 66.7696 71.9327 66.8146 72.3721 66.6793C72.7805 66.1243 73.1731 65.5568 73.5492 64.9778C73.5403 64.8674 73.52 64.7545 73.4873 64.6398L69.6606 51.2465C69.4759 50.6 69.7013 49.9063 70.2307 49.492L79.0555 42.5837C78.9091 40.9841 78.6554 39.4154 78.3021 37.8848L66.3197 37.4549C65.6478 37.4309 65.0576 37.002 64.8272 36.3706L60.0504 23.2856C59.522 21.8384 57.4752 21.8384 56.9469 23.2856L52.1702 36.3702C51.9396 37.0015 51.3496 37.4305 50.6778 37.4545L36.7575 37.9538C35.2178 38.0091 34.5855 39.9556 35.7984 40.9053L46.7667 49.4915C47.296 49.9058 47.5215 50.5996 47.3369 51.2461L43.5102 64.6394C43.0869 66.1208 44.7428 67.3237 46.0209 66.4636L57.5762 58.6854C58.134 58.3104 58.8634 58.3104 59.421 58.6856Z" fill="#E8AE4D"/>
<path d="M70.9777 66.4641C72.2558 67.3245 73.9116 66.1213 73.4884 64.6399L72.7946 62.2114C72.0499 63.5366 71.2167 64.8053 70.3047 66.0112L70.9777 66.4641Z" fill="#E5A32E"/>
<path d="M80.2401 37.9542L76.0957 37.8054C76.6016 39.8602 76.917 41.9895 77.0239 44.1742L81.1992 40.9057C82.4121 39.9562 81.7796 38.0095 80.2401 37.9542Z" fill="#E5A32E"/>
</g>
<defs>
<clipPath id="clip0">
<rect width="117" height="117" fill="white"/>
</clipPath>
</defs>
</svg>
